.local/share/icons/Gruvbox-Plus-Dark/mimetypes/scalable/application-x-deepinclone-dim.svg

<svg width="256" height="256" viewBox="0 0 256 256" fill="none" xmlns="http://www.w3.org/2000/svg">
<g opacity="0.4" filter="url(#filter0_f)">
<path d="M55.0839 15.5636H155.608L216.009 75.7129L216.011 224.609C216.011 233.52 208.749 240.737 199.838 240.737H55.0838C46.1734 240.737 39 233.564 39 224.654V31.6474C39 22.737 46.1734 15.5636 55.0838 15.5636H55.0839Z" fill="#282828"/>
</g>
<path d="M55.0839 15H155.608L216.009 75.1493L216.011 224.045C216.011 232.956 208.749 240.174 199.838 240.174H55.0838C46.1734 240.174 39 233 39 224.09V31.0838C39 22.1734 46.1734 15 55.0838 15H55.0839Z" fill="#ebdbb2"/>
<path fill-rule="evenodd" clip-rule="evenodd" d="M155.609 22.9787H55.0839C50.58 22.9787 46.9787 26.5799 46.9787 31.0838V224.09C46.9787 228.594 50.5799 232.195 55.0838 232.195H199.838C204.371 232.195 208.032 228.521 208.032 224.046V75.1493L155.609 22.9787ZM155.608 15H55.0839C46.1735 15 39 22.1734 39 31.0838V224.09C39 233 46.1734 240.174 55.0838 240.174H199.838C208.749 240.174 216.011 232.956 216.011 224.045L216.009 75.1493L155.608 15Z" fill="url(#paint0_linear)"/>
<path fill-rule="evenodd" clip-rule="evenodd" d="M107.121 180.217C103.047 178.938 100.33 177.581 96.2555 174.945C112.419 176.118 133.336 172.31 147.597 160.054C147.597 160.054 174.626 139.627 155.746 106.154C155.746 106.154 158.463 119.596 154.877 130.798C154.877 130.798 150.802 145.953 133.96 150.302C108.833 156.891 80.3098 139.759 68.3572 132.116C67.4472 124.208 68.2486 115.379 71.0737 106.945C75.1485 95.0843 84.792 84.937 95.6579 78.4796C92.9414 96.5339 95.0875 113.139 98.3744 119.991C102.449 129.216 109.24 140.154 123.909 141.604C138.035 142.922 145.777 131.061 145.777 131.061C152.568 120.519 153.926 105.759 153.926 105.363C153.818 104.994 152.568 104.046 152.568 104.046C147.135 122.627 138.986 128.821 138.986 128.821C126.762 140.681 117.39 132.774 117.39 132.774C107.882 123.55 114.673 107.077 114.673 107.077C118.748 96.5339 129.478 80.4563 141.974 72.2857C144.69 72.7734 146.049 73.0765 148.765 73.6036C156.915 76.2392 162.891 80.1927 168.46 85.4641C158.952 88.0998 144.555 94.6889 144.555 94.6889C121.193 103.914 119.699 118.015 119.699 118.015C116.982 132.511 129.206 125.922 129.206 125.922C141.431 120.65 147.814 102.201 147.814 102.201C143.74 101.502 141.023 102.622 141.023 102.622C135.59 114.483 125.811 119.095 125.811 119.095C121.736 121.731 120.378 117.777 120.378 117.777C119.699 115.142 123.094 115.142 123.094 115.142C128.527 112.506 132.602 107.235 132.602 105.917C133.403 103.281 135.319 103.281 135.319 103.281C143.468 100.646 149.852 100.646 149.852 100.646C159.359 99.5518 173.757 103.281 173.757 103.281C176.473 104.507 180.548 105.917 183.264 105.917C188.697 117.777 190.056 132.669 184.147 146.375C173.281 175.762 138.375 191.049 107.271 180.243L107.121 180.217Z" fill="url(#paint1_linear)"/>
<path opacity="0.25" d="M155.608 17V61.2306C155.608 70.141 162.867 77.1605 171.777 77.1605L216.009 77.1493V75.1493L155.608 17Z" fill="#282828"/>
<path d="M155.608 15V59.2306C155.608 68.141 162.867 75.1605 171.777 75.1605L216.009 75.1493L155.608 15Z" fill="url(#paint2_linear)"/>
<defs>
<filter id="filter0_f" x="23.8778" y="0.441412" width="207.255" height="255.418" filterUnits="userSpaceOnUse" color-interpolation-filters="sRGB">
<feFlood flood-opacity="0" result="BackgroundImageFix"/>
<feBlend mode="normal" in="SourceGraphic" in2="BackgroundImageFix" result="shape"/>
<feGaussianBlur stdDeviation="7.5611" result="effect1_foregroundBlur"/>
</filter>
<linearGradient id="paint0_linear" x1="72.1366" y1="16.0339" x2="72.9729" y2="239.888" gradientUnits="userSpaceOnUse">
<stop stop-color="#83a598"/>
<stop offset="1" stop-color="#458588"/>
</linearGradient>
<linearGradient id="paint1_linear" x1="90.4641" y1="72.7974" x2="90.7662" y2="183.573" gradientUnits="userSpaceOnUse">
<stop stop-color="#83a598"/>
<stop offset="1" stop-color="#458588"/>
</linearGradient>
<linearGradient id="paint2_linear" x1="166.915" y1="15.2762" x2="167.09" y2="75.0844" gradientUnits="userSpaceOnUse">
<stop stop-color="#83a598"/>
<stop offset="1" stop-color="#458588"/>
</linearGradient>
</defs>
</svg>

<svg width="256" height="256" fill="none" version="1.1" viewBox="0 0 256 256" xmlns="http://www.w3.org/2000/svg">
  <path d="m55.08 15h100.5l60.4 60.15 2e-3 148.9c0 8.911-7.262 16.13-16.17 16.13h-144.8c-8.91 0-16.08-7.174-16.08-16.08v-193c0-8.91 7.173-16.08 16.08-16.08h1e-4z" fill="#ebdbb2"/>
  <path d="m155.6 22.98h-100.5c-4.504 0-8.105 3.601-8.105 8.105v193c0 4.504 3.601 8.105 8.105 8.105h144.8c4.533 0 8.194-3.674 8.194-8.149v-148.9l-52.42-52.17zm-1e-3 -7.979h-100.5c-8.91 0-16.08 7.173-16.08 16.08v193c0 8.91 7.173 16.08 16.08 16.08h144.8c8.911 0 16.17-7.218 16.17-16.13l-2e-3 -148.9-60.4-60.15z" clip-rule="evenodd" fill="url(#paint0_linear)" fill-rule="evenodd"/>
  <path d="m107.1 180.2c-4.074-1.279-6.791-2.636-10.87-5.272 16.16 1.173 37.08-2.635 51.34-14.89 0 0 27.03-20.43 8.149-53.9 0 0 2.717 13.44-0.869 24.64 0 0-4.075 15.16-20.92 19.5-25.13 6.589-53.65-10.54-65.6-18.19-0.91-7.908-0.1086-16.74 2.716-25.17 4.075-11.86 13.72-22.01 24.58-28.47-2.716 18.05-0.5704 34.66 2.716 41.51 4.075 9.225 10.87 20.16 25.53 21.61 14.13 1.318 21.87-10.54 21.87-10.54 6.791-10.54 8.149-25.3 8.149-25.7-0.108-0.369-1.358-1.317-1.358-1.317-5.433 18.58-13.58 24.78-13.58 24.78-12.22 11.86-21.6 3.953-21.6 3.953-9.508-9.224-2.717-25.7-2.717-25.7 4.075-10.54 14.8-26.62 27.3-34.79 2.716 0.4877 4.075 0.7908 6.791 1.318 8.15 2.636 14.13 6.589 19.7 11.86-9.508 2.636-23.9 9.225-23.9 9.225-23.36 9.225-24.86 23.33-24.86 23.33-2.717 14.5 9.507 7.907 9.507 7.907 12.22-5.272 18.61-23.72 18.61-23.72-4.074-0.699-6.791 0.421-6.791 0.421-5.433 11.86-15.21 16.47-15.21 16.47-4.075 2.636-5.433-1.318-5.433-1.318-0.679-2.635 2.716-2.635 2.716-2.635 5.433-2.636 9.508-7.907 9.508-9.225 0.801-2.636 2.717-2.636 2.717-2.636 8.149-2.635 14.53-2.635 14.53-2.635 9.507-1.094 23.9 2.635 23.9 2.635 2.716 1.226 6.791 2.636 9.507 2.636 5.433 11.86 6.792 26.75 0.883 40.46-10.87 29.39-45.77 44.67-76.88 33.87l-0.15-0.026z" clip-rule="evenodd" fill="url(#paint1_linear)" fill-rule="evenodd"/>
  <path d="m155.6 17v44.23c0 8.91 7.259 15.93 16.17 15.93l44.23-0.0112v-2l-60.4-58.15z" fill="#282828" opacity=".25"/>
  <path d="m155.6 15v44.23c0 8.91 7.259 15.93 16.17 15.93l44.23-0.0112-60.4-60.15z" fill="url(#paint2_linear)"/>
  <defs>
    <linearGradient id="paint0_linear" x1="72.14" x2="72.97" y1="16.03" y2="239.9" gradientUnits="userSpaceOnUse">
      <stop stop-color="#83a598" offset="0"/>
      <stop stop-color="#458588" offset="1"/>
    </linearGradient>
    <linearGradient id="paint1_linear" x1="90.46" x2="90.77" y1="72.8" y2="183.6" gradientUnits="userSpaceOnUse">
      <stop stop-color="#83a598" offset="0"/>
      <stop stop-color="#458588" offset="1"/>
    </linearGradient>
    <linearGradient id="paint2_linear" x1="166.9" x2="167.1" y1="15.28" y2="75.08" gradientUnits="userSpaceOnUse">
      <stop stop-color="#83a598" offset="0"/>
      <stop stop-color="#458588" offset="1"/>
    </linearGradient>
  </defs>
</svg>
